X: 634
T: El Vurup Yâremi İncitme Tabip
C: Sadık Doğanay
O: Turkey
F: http://compmusic.upf.edu/node/140
N: muhayyer--turku--sofyan--el_vurup--tokat-zile
N: makam= muhayyer
N: form= turku
N: usul= sofyan = 4/4
M: 4/4
L: 1/16
K: C _2/4B ^3/4f  
Q: 1/4=102
%%MIDI tuningsystem comma53
A2ee e2e2 e3d d4  | c2d2 d4 d2dd cBA2  | \
w:  ARANAĞME  |   | 
A2ee e2e2 e3d d4  | 
w:  ARANAĞME  | 
c2d2 d4 d2dd cBA2  | A4 cBcB c2cB B2BA  | \
w:   |   | 
A2AA cBcB B2BA2AA2  | 
w:   | 
A2AA d2c2 B2BA2AA2  | A6AG A2AA2AA2  | \
w:   |   | 
A4 cBcB c2cB B2BA  | 
w:   | 
A2AA cBcB B2BA2AA2  | A2AA d2c2 B2BA2AA2  | 
w:   |   | 
A6AG A2AA2AA2  | g2a2 a2a2 a4 afgf  | \
w:   |  El  vu rup  yâ re mi   | 
g2a3gba a4 a3z  | 
w:  in cit *  me  *  ta bip    | 
fga3gba a4 afg2  | gfgf gfgf gfgf gfg2  | 
w:  in *  cit *  me  *  ta bip    |  SAZ  | 
f3/2g/a2 aga2 aga2 aga2  | gfgA gfgA gfgA gfgA  | 
w:   |   | 
f3/2g/a2 agaA agaA agaA  | A4 z2AG A4 z2a2  | 
w:   |   | 
fga2 a2a2 a3f g2z2  | g2g3fgf g2g{a}f f3z  | \
w:  Bil *  mem  sıh hat  bul *  maz   |  hic râ *  ne *  ler  *  *  *  var    | 
{g}f2ff f2fe f3e e3z  | 
w:  *  Dert  vu rup  *  da  *  yâ *  rem   | 
e2e4e{=f}d e3d d3z  | c2d2 dcdc d4 cBA2  | \
w:  ey ler sin  *  *  der *  man    |  Her  can  ka *  bul  *  et mez   | 
A2c2 cBcB c3B B3z  | 
w:  vî râ *  *  ne *  ler  *  var    | 
{c}B2B2 BAA2 B3A A3z  | A2A2 dBc2 B3A A4  | \
w:  *  vî râ *  *  ne ler  *  var    |  vî râ *  *  ne ler  *  var    | 
A2AA2AAG A2AA2AA2  | 
w:  SAZ  | 
d2ee e2ed e3d d3z  | c2d2 dcdc d3B c3z  | \
w:  Dert  vu rup  *  da  *  yâ *  rem   |  ey ler *  *  sin  *  der *  man    | 
c2c2 c2cB c3B B3z  | 
w:  Her  can  tah mül  *  et *  mez   | 
B2B4BA B3A A4  | A2A2 dBcB B3A A3z  | \
w:  vî râ ne *  ler  *  var    |  vî râ *  *  ne *  ler  *  var    | 
A2AA2AAG A2AA2AA2  | 
w:  SAZ  | 
A2e4e2 e3d d3z  | edd4dc d4 cBA2  | A2e4ed e3d d3z  | 
w:  Vay  dün ya  dün *  ya   |  fâ *  nî sin  *  dün ya    |  Vay  dün ya  *  dün *  ya   | 
edd4dc d3B c3z  | c2cc cBcB c3B B4  | \
w:  ya *  lan sın  *  dün *  ya    |  Cân_ i le  *  *  câ *  nâ *  nı   | 
B2B2 BABA B3A A4  | 
w:  a lan *  *  sın  *  dün *  ya    | 
A2A2 dBcB B3A A4  | A2AA2AAG A2AA2AA2  | \
w:  a lan *  *  sın  *  dün *  ya    |  SAZ  | 
A2ee e2e2 e3d d4  | 
w:  ARANAĞME  | 
c2d2 d4 d2dd cBA2  | A2ee e2e2 e3d d4  | \
w:   |  ARANAĞME  | 
c2d2 d4 d2dd cBA2  | 
w:   | 
A4 cBcB c2cB B2BA  | A2AA cBcB B2BA2AA2  | 
w:   |   | 
A2AA d2c2 B2BA2AA2  | A6AG A2AA2AA2  | \
w:   |   | 
A4 cBcB c2cB B2BA  | 
w:   | 
A2AA cBcB B2BA2AA2  | A2AA d2c2 B2BA2AA2  | 
w:   |   | 
A6AG A2AA2AA2  | g2a2 a2a2 a4 afgf  | \
w:   |  El  vu rup  yâ re mi   | 
g2a3gba a4 a3z  | 
w:  in cit *  me  *  ta bip    | 
fga3gba a4 afg2  | gfgf gfgf gfgf gfg2  | 
w:  in *  cit *  me  *  ta bip    |  SAZ  | 
f3/2g/a2 aga2 aga2 aga2  | gfgA gfgA gfgA gfgA  | 
w:   |   | 
f3/2g/a2 agaA agaA agaA  | A4 z2AG A4 z2a2  | 
w:   |   | 
fga2 a2a2 a3f g2z2  | g2g3fgf g2g{a}f f3z  | \
w:  Bil *  mem  sıh hat  bul *  maz   |  hic râ *  ne *  ler  *  *  *  var    | 
{g}f2ff f2fe f3e e3z  | 
w:  *  Dert  vu rup  *  da  *  yâ *  rem   | 
e2e4e{=f}d e3d d3z  | c2d2 dcdc d4 cBA2  | \
w:  ey ler sin  *  *  der *  man    |  Her  can  ka *  bul  *  et mez   | 
A2c2 cBcB c3B B3z  | 
w:  vî râ *  *  ne *  ler  *  var    | 
{c}B2B2 BAA2 B3A A3z  | A2A2 dBc2 B3A A4  | \
w:  *  vî râ *  *  ne ler  *  var    |  vî râ *  *  ne ler  *  var    | 
A2AA2AAG A2AA2AA2  | 
w:  SAZ  | 
d2ee e2ed e3d d3z  | c2d2 dcdc d3B c3z  | \
w:  Dert  vu rup  *  da  *  yâ *  rem   |  ey ler *  *  sin  *  der *  man    | 
c2c2 c2cB c3B B3z  | 
w:  Her  can  tah mül  *  et *  mez   | 
B2B4BA B3A A4  | A2A2 dBcB B3A A3z  | \
w:  vî râ ne *  ler  *  var    |  vî râ *  *  ne *  ler  *  var    | 
A2AA2AAG A2AA2AA2  | 
w:  SAZ  | 
A2e4e2 e3d d3z  | edd4dc d4 cBA2  | A2e4ed e3d d3z  | 
w:  Vay  dün ya  dün *  ya   |  fâ *  nî sin  *  dün ya    |  Vay  dün ya  *  dün *  ya   | 
edd4dc d3B c3z  | c2cc cBcB c3B B4  | \
w:  ya *  lan sın  *  dün *  ya    |  Cân_ i le  *  *  câ *  nâ *  nı   | 
B2B2 BABA B3A A4  | 
w:  a lan *  *  sın  *  dün *  ya    | 
A2A2 dBcB B3A A4  | A2AA2AAG A2AA2AA2  | |


